X: 15751
T: Good Alibi, The
R: reel
M: 4/4
K: Dmajor
|~A3B AFEF|ADFA BABd|ef~f2 edBd|efaf edBd|
~A3B AFEF|ADFA BABd|ef~f2 edBd|1 efdB d2cB:|2 efdB d2 de||
faaf afed|gbeg bgeg|faaf afed|Beed BcdB|
~A3B AFEF|ADFA BABd|ef~f2 edBd|1 efdB d2 de:|2 efdB d2cB:|

